hw8Responsive/images/logos/contentlogo/bluebox/baseline-poll-24px.svg

<svg width="40" height="40" viewBox="0 0 40 40" fill="none" xmlns="http://www.w3.org/2000/svg">
<path d="M31.6667 5H8.33333C6.5 5 5 6.5 5 8.33333V31.6667C5 33.5 6.5 35 8.33333 35H31.6667C33.5 35 35 33.5 35 31.6667V8.33333C35 6.5 33.5 5 31.6667 5ZM15 28.3333H11.6667V16.6667H15V28.3333ZM21.6667 28.3333H18.3333V11.6667H21.6667V28.3333ZM28.3333 28.3333H25V21.6667H28.3333V28.3333Z" fill="white"/>
</svg>

<svg width="40" height="40" fill="none" xmlns="http://www.w3.org/2000/svg"><path d="M31.667 5H8.333A3.343 3.343 0 005 8.333v23.334C5 33.5 6.5 35 8.333 35h23.334C33.5 35 35 33.5 35 31.667V8.333C35 6.5 33.5 5 31.667 5zM15 28.333h-3.333V16.667H15v11.666zm6.667 0h-3.334V11.667h3.334v16.666zm6.666 0H25v-6.666h3.333v6.666z" fill="#fff"/></svg>
